X:1
T:Bag of Spuds, The
R:reel
M:4/4
L:1/8
K:Ador
A2eA cAeA|ABcd edBA|G2dG BGdG|GABc dcBG|
A2eA cAeA|ABcd edcB|ABcd efge|dBGA BAA2:|
|:a2ea ageg|agbg agef|gedB GABd|gfga bgeg|
a2ea ageg|agbg ageg|d2de g2ge|dBGA BAA2:|
</abc>
